2021/frontend/assets/img/arrow.svg

<svg fill="none" height="59" viewBox="0 0 46 59" width="46" xmlns="http://www.w3.org/2000/svg"><g fill="#f0f26a"><path clip-rule="evenodd" d="m27 57.0325c-.2761 0-.5-.2239-.5-.5 0-.2762.2239-.5.5-.5 1.3732 0 2.5684-.6174 3.6335-1.724 1.0727-1.1146 1.9921-2.7063 2.7842-4.5882 1.5842-3.7636 2.605-8.5519 3.3767-12.6263.9743-5.1438 3.888-7.6009 6.2236-8.5615-2.3356-.9607-5.2493-3.4177-6.2236-8.5615-.7717-4.0745-1.7925-8.8627-3.3767-12.62637-.7921-1.88194-1.7115-3.47354-2.7842-4.58817-1.0651-1.10665-2.2603-1.72399-3.6335-1.72399-.2761 0-.5-.223857-.5-.499999s.2239-.5000003.5-.5000003c1.7125-.0000001 3.153.7826613 4.354 2.0305593 1.1933 1.23991 2.1704 2.9574 2.9854 4.89365 1.6301 3.87272 2.6665 8.75712 3.4376 12.82822 1.1886 6.2753 5.4076 8.0921 7.2564 8.2486.046.003.0905.0124.1326.0272.0717.0252.1355.0661.1877.1183.0514.0514.0918.1141.117.1846.0191.053.0294.1099.0293.1689.0002.1365-.0553.2622-.1464.3534-.0521.0523-.1159.0932-.1876.1183-.0421.0149-.0866.0242-.1326.0272-1.8488.1566-6.0678 1.9733-7.2564 8.2487-.7711 4.071-1.8075 8.9555-3.4376 12.8282-.815 1.9362-1.7921 3.6537-2.9854 4.8936-1.201 1.2479-2.6415 2.0306-4.354 2.0306z" fill-rule="evenodd"/><path d="m45.5 29.0325c.2761 0 .5-.2239.5-.5 0-.2762-.2239-.5-.5-.5zm-43-1c-.27614 0-.5.2238-.5.5 0 .2761.22386.5.5.5zm43 0h-43v1h43z"/><path clip-rule="evenodd" d="m20 .0324707c-.2761 0-.5.2238583-.5.5000003s.2239.499999.5.499999c1.3732 0 2.5684.61734 3.6335 1.72399 1.0727 1.11463 1.9921 2.70623 2.7842 4.58817 1.5842 3.76367 2.605 8.55187 3.3767 12.62637.9743 5.1438 3.888 7.6008 6.2236 8.5615-2.3356.9606-5.2493 3.4177-6.2236 8.5615-.7717 4.0744-1.7925 8.8627-3.3767 12.6263-.7921 1.8819-1.7115 3.4736-2.7842 4.5882-1.0651 1.1066-2.2603 1.724-3.6335 1.724-.2761 0-.5.2238-.5.5 0 .2761.2239.5.5.5.9141 0 1.7506-.223 2.5147-.6207-.0096.0387-.0147.0791-.0147.1207 0 .2761.2239.5.5.5 1.7125 0 3.153-.7827 4.354-2.0306 1.1933-1.2399 2.1704-2.9574 2.9854-4.8936 1.6301-3.8727 2.6665-8.7572 3.4376-12.8282 1.1886-6.2754 5.4076-8.0921 7.2564-8.2487.046-.003.0905-.0123.1326-.0271.1404-.0496.2537-.1604.3047-.3029.0191-.053.0294-.11.0293-.1689.0001-.059-.0102-.1159-.0293-.1689-.0503-.1401-.1618-.2527-.3047-.3029-.0421-.0148-.0866-.0242-.1326-.0272-1.8488-.1565-6.0678-1.9733-7.2564-8.2486-.7711-4.0711-1.8075-8.9555-3.4376-12.82822-.815-1.93625-1.7921-3.65374-2.9854-4.89365-1.201-1.247898-2.6415-2.0305595-4.354-2.0305594-.2761 0-.5.2238574-.5.5000004 0 .041603.0051.082023.0147.120666-.7641-.397686-1.6006-.6206664-2.5147-.6206663zm3.1509 55.9975293c1.3101-.0436 2.4567-.6556 3.4826-1.7215 1.0727-1.1146 1.9921-2.7063 2.7842-4.5882 1.5842-3.7636 2.605-8.5519 3.3767-12.6263.8362-4.4145 3.1008-6.8502 5.2025-8.0593-1.8673.1772-6.0391 2.011-7.2199 8.2454-.7711 4.071-1.8075 8.9555-3.4376 12.8282-.815 1.9362-1.7921 3.6537-2.9854 4.8936-.3771.3918-.7778.7378-1.2031 1.0281zm15.3201-27.3295c-.0135.0381-.0315.0739-.0533.1069.2032-.1027.4038-.1941.6003-.2749-.1965-.0808-.3971-.1723-.6003-.275.0218.033.0398.0688.0533.1069.019.053.0292.1098.029.1687 0 .0584-.0102.1148-.029.1674zm-15.3201-27.66553c.4253.29027.826.63623 1.2031 1.02806 1.1933 1.23991 2.1704 2.9574 2.9854 4.89365 1.6301 3.87272 2.6665 8.75712 3.4376 12.82822 1.1808 6.2343 5.3526 8.0681 7.2199 8.2453-2.1017-1.2091-4.3663-3.6447-5.2025-8.0592-.7717-4.0745-1.7925-8.8627-3.3767-12.62637-.7921-1.88194-1.7115-3.47354-2.7842-4.58817-1.0259-1.06593-2.1725-1.6779-3.4826-1.72149z" fill-rule="evenodd"/></g></svg>

<svg width="46" height="59" viewBox="0 0 46 59" fill="none" xmlns="http://www.w3.org/2000/svg">
<path fill-rule="evenodd" clip-rule="evenodd" d="M27 57.0325C26.7239 57.0325 26.5 56.8086 26.5 56.5325C26.5 56.2563 26.7239 56.0325 27 56.0325C28.3732 56.0325 29.5684 55.4151 30.6335 54.3085C31.7062 53.1939 32.6256 51.6022 33.4177 49.7203C35.0019 45.9567 36.0227 41.1684 36.7944 37.094C37.7687 31.9502 40.6824 29.4931 43.018 28.5325C40.6824 27.5718 37.7687 25.1148 36.7944 19.971C36.0227 15.8965 35.0019 11.1083 33.4177 7.34463C32.6256 5.46269 31.7062 3.87109 30.6335 2.75646C29.5684 1.64981 28.3732 1.03247 27 1.03247C26.7239 1.03247 26.5 0.808613 26.5 0.532471C26.5 0.256329 26.7239 0.0324707 27 0.0324707C28.7125 0.0324706 30.153 0.815132 31.354 2.06303C32.5473 3.30294 33.5244 5.02043 34.3394 6.95668C35.9695 10.8294 37.0059 15.7138 37.777 19.7849C38.9656 26.0602 43.1846 27.877 45.0334 28.0335C45.0794 28.0365 45.1239 28.0459 45.166 28.0607C45.2377 28.0859 45.3015 28.1268 45.3537 28.179C45.4051 28.2304 45.4455 28.2931 45.4707 28.3636C45.4898 28.4166 45.5001 28.4735 45.5 28.5325C45.5002 28.669 45.4447 28.7947 45.3536 28.8859C45.3015 28.9382 45.2377 28.9791 45.166 29.0042C45.1239 29.0191 45.0794 29.0284 45.0334 29.0314C43.1846 29.188 38.9656 31.0047 37.777 37.2801C37.0059 41.3511 35.9695 46.2356 34.3394 50.1083C33.5244 52.0445 32.5473 53.762 31.354 55.0019C30.153 56.2498 28.7125 57.0325 27 57.0325Z" fill="#F0F26A"/>
<path d="M45.5 29.0325C45.7761 29.0325 46 28.8086 46 28.5325C46 28.2563 45.7761 28.0325 45.5 28.0325L45.5 29.0325ZM2.5 28.0325C2.22386 28.0325 2 28.2563 2 28.5325C2 28.8086 2.22386 29.0325 2.5 29.0325L2.5 28.0325ZM45.5 28.0325L2.5 28.0325L2.5 29.0325L45.5 29.0325L45.5 28.0325Z" fill="#F0F26A"/>
<path fill-rule="evenodd" clip-rule="evenodd" d="M20 0.0324707C19.7239 0.0324707 19.5 0.256329 19.5 0.532471C19.5 0.808613 19.7239 1.03247 20 1.03247C21.3732 1.03247 22.5684 1.64981 23.6335 2.75646C24.7062 3.87109 25.6256 5.46269 26.4177 7.34463C28.0019 11.1083 29.0227 15.8965 29.7944 19.971C30.7687 25.1148 33.6824 27.5718 36.018 28.5325C33.6824 29.4931 30.7687 31.9502 29.7944 37.094C29.0227 41.1684 28.0019 45.9567 26.4177 49.7203C25.6256 51.6022 24.7062 53.1939 23.6335 54.3085C22.5684 55.4151 21.3732 56.0325 20 56.0325C19.7239 56.0325 19.5 56.2563 19.5 56.5325C19.5 56.8086 19.7239 57.0325 20 57.0325C20.9141 57.0325 21.7506 56.8095 22.5147 56.4118C22.5051 56.4505 22.5 56.4909 22.5 56.5325C22.5 56.8086 22.7239 57.0325 23 57.0325C24.7125 57.0325 26.153 56.2498 27.354 55.0019C28.5473 53.762 29.5244 52.0445 30.3394 50.1083C31.9695 46.2356 33.0059 41.3511 33.777 37.2801C34.9656 31.0047 39.1846 29.188 41.0334 29.0314C41.0794 29.0284 41.1239 29.0191 41.166 29.0043C41.3064 28.9547 41.4197 28.8439 41.4707 28.7014C41.4898 28.6484 41.5001 28.5914 41.5 28.5325C41.5001 28.4735 41.4898 28.4166 41.4707 28.3636C41.4204 28.2235 41.3089 28.1109 41.166 28.0607C41.1239 28.0459 41.0794 28.0365 41.0334 28.0335C39.1846 27.877 34.9656 26.0602 33.777 19.7849C33.0059 15.7138 31.9695 10.8294 30.3394 6.95668C29.5244 5.02043 28.5473 3.30294 27.354 2.06303C26.153 0.815132 24.7125 0.0324705 23 0.0324706C22.7239 0.0324706 22.5 0.256328 22.5 0.532471C22.5 0.574074 22.5051 0.614494 22.5147 0.653137C21.7506 0.255451 20.9141 0.0324706 20 0.0324707ZM23.1509 56.03C24.461 55.9864 25.6076 55.3744 26.6335 54.3085C27.7062 53.1939 28.6256 51.6022 29.4177 49.7203C31.0019 45.9567 32.0227 41.1684 32.7944 37.094C33.6306 32.6795 35.8952 30.2438 37.9969 29.0347C36.1296 29.2119 31.9578 31.0457 30.777 37.2801C30.0059 41.3511 28.9695 46.2356 27.3394 50.1083C26.5244 52.0445 25.5473 53.762 24.354 55.0019C23.9769 55.3937 23.5762 55.7397 23.1509 56.03ZM38.471 28.7005C38.4575 28.7386 38.4395 28.7744 38.4177 28.8074C38.6209 28.7047 38.8215 28.6133 39.018 28.5325C38.8215 28.4517 38.6209 28.3602 38.4177 28.2575C38.4395 28.2905 38.4575 28.3263 38.471 28.3644C38.49 28.4174 38.5002 28.4742 38.5 28.5331C38.5 28.5915 38.4898 28.6479 38.471 28.7005ZM23.1509 1.03497C23.5762 1.32524 23.9769 1.6712 24.354 2.06303C25.5473 3.30294 26.5244 5.02043 27.3394 6.95668C28.9695 10.8294 30.0059 15.7138 30.777 19.7849C31.9578 26.0192 36.1296 27.853 37.9969 28.0302C35.8952 26.8211 33.6306 24.3855 32.7944 19.971C32.0227 15.8965 31.0019 11.1083 29.4177 7.34463C28.6256 5.46269 27.7062 3.87109 26.6335 2.75646C25.6076 1.69053 24.461 1.07856 23.1509 1.03497Z" fill="#F0F26A"/>
</svg>
